icon-sprites/icons-svg - Copy/i35a.svg

<?xml version="1.0" encoding="UTF-8" standalone="no"?>
<svg xmlns:dc="http://purl.org/dc/elements/1.1/" xmlns:cc="http://creativecommons.org/ns#" xmlns:rdf="http://www.w3.org/1999/02/22-rdf-syntax-ns#" xmlns:svg="http://www.w3.org/2000/svg" xmlns="http://www.w3.org/2000/svg" xmlns:xlink="http://www.w3.org/1999/xlink" xmlns:sodipodi="http://sodipodi.sourceforge.net/DTD/sodipodi-0.dtd" xmlns:inkscape="http://www.inkscape.org/namespaces/inkscape" version="1.1" viewBox="0 0 56.734857 75.600002" id="svg31398" sodipodi:docname="i35a.svg" inkscape:version="0.92.2 (5c3e80d, 2017-08-06)" width="56.734856" height="75.599998">
  <metadata id="metadata31404">
    <rdf:RDF>
      <cc:Work rdf:about="">
        <dc:format>image/svg+xml</dc:format>
        <dc:type rdf:resource="http://purl.org/dc/dcmitype/StillImage" />
        <dc:title></dc:title>
      </cc:Work>
    </rdf:RDF>
  </metadata>
  <defs id="defs31402">
    <linearGradient id="reslogo-linearGradient5862" x1="-1444.443" xlink:href="#reslogo-linearGradientSlvr" gradientUnits="userSpaceOnUse" x2="-1444.443" gradientTransform="matrix(2.1261429,0,0,2.1453122,3109.7065,-3823.5958)" y1="1797.2881" y2="1803.9598" />
    <linearGradient id="reslogo-linearGradientSlvr" y2="828" gradientUnits="userSpaceOnUse" x2="-1869" gradientTransform="matrix(1.301,0,0,1.301,1365,-35.3)" y1="794.40002" x1="-1869">
      <stop id="reslogo-stop4422" stop-color="#696969" offset="0" />
      <stop id="reslogo-stop4424" stop-color="#c7c7c9" offset=".17" />
      <stop id="reslogo-stop4426" stop-color="#f9f9ff" offset=".36" />
      <stop id="reslogo-stop4428" stop-color="#ccccce" offset=".73" />
      <stop id="reslogo-stop4430" stop-color="#696969" offset="1" />
    </linearGradient>
    <linearGradient inkscape:collect="always" xlink:href="#reslogo-linearGradientSlvr" id="linearGradient32672" x1="20.896086" y1="22.207708" x2="60.459736" y2="18.41345" gradientUnits="userSpaceOnUse" gradientTransform="matrix(0.5620362,0,0,0.5620362,0.85325456,0.061794)" />
    <linearGradient inkscape:collect="always" xlink:href="#reslogo-linearGradientSlvr" id="linearGradient32680" x1="26.340786" y1="126.47284" x2="84.676964" y2="126.47284" gradientUnits="userSpaceOnUse" gradientTransform="matrix(0.5620362,0,0,0.5620362,0.85325456,0.061794)" />
    <linearGradient id="reslogo-linearGradient4674" y2="1413.6873" xlink:href="#reslogo-linearGradient7728" gradientUnits="userSpaceOnUse" x2="-1854.9695" gradientTransform="matrix(1.7046174,0,0,2.8039529,3177.6248,-3921.6313)" y1="1401.6953" x1="-1835.9272" />
    <linearGradient id="reslogo-linearGradient7728" y2="781.40002" gradientUnits="userSpaceOnUse" x2="-1405" gradientTransform="scale(0.7835,1.276)" y1="704.40002" x1="-1405">
      <stop id="reslogo-stop4435" stop-color="#1c072d" offset="0" />
      <stop id="reslogo-stop4437" stop-color="#5700aa" offset=".29" />
      <stop id="reslogo-stop4439" stop-color="#4b127b" offset=".64" />
      <stop id="reslogo-stop4441" stop-color="#290a43" offset="1" />
    </linearGradient>
    <linearGradient id="reslogo-linearGradient4678" y2="947.73828" xlink:href="#reslogo-linearGradient7732" gradientUnits="userSpaceOnUse" x2="-539.02252" gradientTransform="matrix(1.0879225,0,0,1.0920813,576.40932,-960.26544)" y1="871.86438" x1="-539.02252" />
    <linearGradient id="reslogo-linearGradient7732" y2="1076" gradientUnits="userSpaceOnUse" x2="-1040" gradientTransform="matrix(0.5122,0,0,0.5116,-456,447.2)" y1="884.29999" x1="-1040">
      <stop id="reslogo-stop4444" stop-color="#141414" offset="0" />
      <stop id="reslogo-stop4446" stop-color="#0a0a0a" offset=".15" />
      <stop id="reslogo-stop4448" stop-color="#6d6d6d" offset=".3" />
      <stop id="reslogo-stop4450" offset="0.48213118" />
      <stop id="reslogo-stop4452" stop-color="#141414" offset="0.63964486" />
      <stop id="reslogo-stop4454" stop-color="#262626" offset="0.79388851" style="stop-color:#6d6d6d;stop-opacity:1" />
      <stop id="reslogo-stop4456" stop-color="#040404" offset="1" />
    </linearGradient>
  </defs>
  <sodipodi:namedview pagecolor="#ffffff" bordercolor="#666666" borderopacity="1" objecttolerance="10" gridtolerance="10" guidetolerance="10" inkscape:pageopacity="0" inkscape:pageshadow="2" inkscape:window-width="2560" inkscape:window-height="1001" id="namedview31400" showgrid="false" inkscape:snap-global="false" inkscape:zoom="5.0075678" inkscape:cx="-68.827028" inkscape:cy="64.722849" inkscape:window-x="-9" inkscape:window-y="41" inkscape:window-maximized="1" inkscape:current-layer="svg31398" fit-margin-top="0.3" fit-margin-left="0.3" fit-margin-right="0.3" fit-margin-bottom="0.3" />
  <path style="opacity:1;fill:url(#reslogo-linearGradient4674);fill-opacity:1;stroke:none;stroke-width:7.76899481;stroke-linecap:butt;stroke-linejoin:miter;stroke-miterlimit:4;stroke-dasharray:none;stroke-dashoffset:0;stroke-opacity:1" d="M 55.217457,25.061388 A 23.41232,23.41232 0 0 1 31.805137,48.47371 23.41232,23.41232 0 0 1 8.3928159,25.061388 23.41232,23.41232 0 0 1 31.805137,1.649068 23.41232,23.41232 0 0 1 55.217457,25.061388 Z" id="path32683" inkscape:connector-curvature="0" />
  <path inkscape:connector-curvature="0" id="path31375" style="opacity:1;fill:url(#reslogo-linearGradient5862);fill-opacity:1;stroke:none;stroke-width:15.47165585;stroke-linecap:butt;stroke-linejoin:miter;stroke-miterlimit:4;stroke-dasharray:none;stroke-dashoffset:0;stroke-opacity:1" d="M 33.108512,48.28911 C 32.017276,46.79615 30.802127,43.99212 33.15348,40.491567 36.706992,35.193276 38.587675,38.817739 40.399407,34.918468 41.364831,32.833928 42.705792,31.94455 44.011878,31.94455 45.156077,31.94455 46.274294,32.629471 47.087725,33.800251 48.07943,35.228251 49.431084,36.241542 50.966009,36.241542 51.720681,36.241542 52.519921,35.995714 53.341346,35.433708 49.57898,42.88049 41.959315,48.03489 33.105514,48.28471" />
  <path inkscape:connector-curvature="0" id="path31377" style="fill:url(#linearGradient32672);fill-opacity:1;stroke-width:0.9993003" d="M 23.115508,27.20387 C 19.265204,27.20387 16.153383,26.120628 19.624952,20.986223 21.934335,17.578609 16.74297,13.609388 12.987599,13.609388 12.208444,13.609388 11.490647,13.779169 10.914051,14.165498 14.807325,6.630774 22.665823,1.474384 31.729477,1.474384 32.468859,1.474384 33.198449,1.515355 33.920943,1.57971 28.542708,5.256136 35.321962,8.557824 34.677913,10.952148 34.028068,13.364459 28.721084,14.845422 29.662424,19.867906 30.745666,25.651856 27.71179,26.834029 25.203546,27.115831 24.507434,27.168495 23.802527,27.197774 23.121004,27.197774" />
  <path inkscape:connector-curvature="0" id="path31379" style="fill:url(#linearGradient32680);fill-opacity:1;stroke-width:0.9993003" d="M 46.099417,74.07106 H 17.99909 C 16.710992,74.07106 15.65773,73.0178 15.65773,71.7297 15.65773,69.79805 17.238623,68.21716 19.17027,68.21716 H 44.932234 C 46.863881,68.21716 48.444774,69.79805 48.444774,71.7297 48.444774,73.0178 47.391512,74.07106 46.103413,74.07106" />
  <path style="opacity:1;fill:url(#reslogo-linearGradient4678);fill-opacity:1;stroke-width:2.12932205;stroke-linecap:butt;stroke-linejoin:miter;stroke-miterlimit:4;stroke-dasharray:none;stroke-dashoffset:0;stroke-opacity:1" d="M 8.1202066,0.3 C 7.8206036,0.3 7.5202625,0.415644 7.2914226,0.646882 6.8342429,1.103562 6.8342429,1.840085 7.2914226,2.296765 L 8.5944248,3.599767 C 3.4516473,9.219952 0.29903412,16.703928 0.30000022,24.925308 0.30000022,42.12217 14.016915,56.09384 31.109902,56.52337 V 67.10437 H 19.337879 C 16.753688,67.11037 14.658973,69.20509 14.654975,71.78727 14.654975,73.73091 16.226962,75.3 18.166604,75.3 H 46.267315 C 48.206958,75.3 49.775046,73.73091 49.780042,71.78727 49.780042,69.20656 47.682591,67.11275 45.100432,67.10437 H 33.452451 V 56.50581 C 40.917192,56.14773 47.699958,53.18977 52.92503,48.53412 L 54.4366,50.04569 C 54.89378,50.50237 55.634292,50.50237 56.091972,50.04569 56.549153,49.58901 56.549153,48.8459 56.091972,48.38922 L 54.03044,46.32769 C 53.980582,46.23397 53.922348,46.14306 53.844925,46.06314 53.756061,45.97021 53.65387,45.90057 53.546343,45.84359 L 49.520979,41.81823 C 51.036913,40.218399 52.342131,38.418284 53.387172,36.455832 53.397384,36.448943 53.407712,36.443033 53.417909,36.436073 53.772464,36.191143 53.946689,35.788765 53.920668,35.389939 55.420393,32.209653 56.263218,28.657342 56.263218,24.905549 56.263218,12.475476 47.035905,2.203597 35.067208,0.551379 34.794457,0.39271 34.467688,0.350645 34.160485,0.437216 33.344957,0.355417 32.517695,0.313173 31.68072,0.313173 25.27829,0.313173 19.450133,2.761835 15.075405,6.772198 L 8.9478925,0.646882 C 8.7193024,0.415644 8.4198089,0.3 8.1202066,0.3 Z M 31.677427,2.661211 C 31.708734,2.661211 31.739458,2.663277 31.770734,2.663406 31.401372,3.296498 31.214275,3.981319 31.21748,4.625044 31.21748,5.450466 31.474608,6.175358 31.794883,6.813911 32.280143,7.768144 32.92878,8.570735 33.407445,9.255256 33.647476,9.594819 33.84418,9.899992 33.961797,10.140024 34.082413,10.380057 34.110693,10.543225 34.107794,10.590092 V 10.625219 C 34.077816,10.736441 34.011365,10.883244 33.886054,11.058821 33.670005,11.375 33.273892,11.772441 32.785033,12.211435 32.054445,12.878867 31.124945,13.645553 30.341494,14.675831 29.951067,15.196867 29.597182,15.782226 29.34366,16.449759 29.089638,17.122987 28.939196,17.872989 28.939696,18.692415 28.939696,19.131507 28.982586,19.58801 29.071423,20.062378 29.215422,20.829241 29.277796,21.490541 29.277796,22.059143 29.277796,22.908049 29.139255,23.527959 28.940794,23.996631 28.790899,24.34199 28.607876,24.611753 28.394126,24.834197 28.07395,25.162068 27.671076,25.407169 27.19431,25.582847 26.732145,25.75386 26.204545,25.862402 25.677252,25.922044 25.001625,25.974708 24.324035,26.004373 23.680486,26.004373 22.421367,26.010369 21.284937,25.86385 20.635392,25.582847 20.306922,25.442345 20.117402,25.290437 20.017372,25.155831 19.920439,25.021125 19.861902,24.898157 19.856006,24.611358 19.856006,24.359635 19.922987,23.979158 20.127144,23.475211 20.329702,22.971763 20.664852,22.344447 21.160105,21.618955 21.677043,20.857887 21.935803,20.003032 21.932905,19.17761 21.932905,18.176311 21.577162,17.252197 21.051431,16.449759 20.256487,15.249599 19.072034,14.272338 17.754957,13.563835 16.433881,12.861327 14.97596,12.417217 13.553955,12.411221 13.456877,12.411221 13.36014,12.423233 13.263057,12.427687 13.890555,11.503737 14.587311,10.630818 15.34325,9.811803 15.625642,9.799589 15.904578,9.690193 16.12044,9.474802 16.337818,9.257661 16.447878,8.975085 16.458541,8.689926 20.440621,4.951282 25.785193,2.661211 31.677427,2.661211 Z M 34.674222,2.867583 C 39.618839,3.533186 44.046069,5.815533 47.406756,9.17622 51.434936,13.209396 53.921766,18.759852 53.921766,24.905549 53.921766,28.458011 53.086758,31.810789 51.607758,34.787287 51.152416,35.016685 50.750839,35.101237 50.379401,35.101237 49.874155,35.101237 49.384251,34.937326 48.881004,34.609455 48.382153,34.281585 47.890042,33.778418 47.462741,33.163748 46.973983,32.46124 46.377824,31.875785 45.694303,31.460076 45.01168,31.050264 44.233735,30.804734 43.425301,30.804734 42.503247,30.798738 41.568439,31.132296 40.770997,31.758658 39.970158,32.385019 39.292702,33.286198 38.750081,34.451383 38.554618,34.872887 38.373274,35.159859 38.218782,35.347128 38.082377,35.516909 37.969847,35.611276 37.860923,35.687423 37.674254,35.810337 37.461165,35.879912 37.085928,35.961855 36.538511,36.084769 35.656928,36.201904 34.678612,36.752218 33.6975,37.302533 32.680239,38.245703 31.593999,39.867568 30.488774,41.50642 30.043305,43.1109 30.047302,44.53291 30.047302,45.49794 30.24856,46.36945 30.536888,47.12135 24.845371,46.83425 19.724545,44.41132 15.948098,40.634878 11.919918,36.606699 9.433088,31.051246 9.433088,24.905549 9.433088,21.460077 10.215628,18.203848 11.612076,15.296047 11.789372,15.275326 11.964748,15.219009 12.123617,15.112727 12.454385,14.890283 12.935996,14.754868 13.548467,14.754868 14.155642,14.754868 14.871348,14.895723 15.585848,15.153343 16.658097,15.545569 17.721411,16.212414 18.461893,16.967885 18.833133,17.348419 19.122567,17.741163 19.310436,18.121597 19.499004,18.50213 19.585964,18.853432 19.585964,19.180903 19.585964,19.543849 19.490139,19.894963 19.216031,20.304975 18.652225,21.142189 18.235852,21.89172 17.950352,22.599225 17.66645,23.307629 17.510264,23.968907 17.509066,24.612456 17.499073,25.338348 17.736316,26.052444 18.157822,26.585071 18.469904,26.994884 18.864281,27.299679 19.286285,27.528019 19.920941,27.873377 20.621408,28.065937 21.359892,28.188851 22.098774,28.305968 22.880751,28.346923 23.677193,28.346923 24.398488,28.346923 25.130901,28.311868 25.847399,28.259105 L 25.889113,28.253616 C 26.481498,28.189261 27.122775,28.078277 27.767324,27.861728 28.72975,27.545549 29.728954,26.982987 30.464439,26.005471 30.830382,25.519611 31.122907,24.940874 31.31847,24.285333 31.514533,23.623796 31.615954,22.885663 31.615954,22.060241 31.615954,21.322557 31.536047,20.520348 31.370063,19.630971 31.306108,19.291409 31.278854,18.98141 31.277854,18.69461 31.277854,17.88088 31.489441,17.24883 31.836597,16.646251 32.354734,15.744682 33.236473,14.948068 34.130847,14.14563 34.576934,13.747508 35.024151,13.343617 35.422871,12.886537 35.818095,12.429856 36.182749,11.902888 36.364721,11.235555 36.422681,11.018907 36.449246,10.80304 36.449246,10.592287 36.449246,10.211754 36.368369,9.866416 36.254948,9.556033 36.054789,9.011615 35.760993,8.547838 35.453608,8.097154 34.991131,7.423926 34.483217,6.786803 34.118772,6.177229 33.936099,5.878639 33.791478,5.591105 33.697245,5.327589 33.603311,5.06997 33.558931,4.835797 33.558931,4.625044 33.558931,4.349837 33.621005,4.098907 33.837754,3.753449 34.000343,3.499319 34.265012,3.198677 34.674222,2.867583 Z M 10.255286,5.261726 13.425522,8.435254 C 9.4909686,12.795455 7.0919069,18.570469 7.0872455,24.905549 7.0872455,38.486041 18.100228,49.49793 31.68072,49.49793 31.910402,49.49793 32.137536,49.48662 32.365701,49.48036 32.483608,49.49655 32.602862,49.49177 32.721366,49.47158 38.498244,49.23099 43.755556,46.99859 47.831577,43.44177 L 51.266365,46.87546 C 46.103912,51.43507 39.337662,54.20059 31.913439,54.20059 23.826101,54.20059 16.514284,50.92783 11.217992,45.62954 5.9197017,40.32525 2.6457443,33.018543 2.644745,24.92421 2.644745,17.349666 5.531753,10.463102 10.255286,5.261726 Z M 43.427496,33.146185 C 43.764161,33.146185 44.116168,33.245375 44.482412,33.467819 44.846557,33.684467 45.216546,34.030312 45.541718,34.498585 46.106123,35.312314 46.784936,36.03188 47.59337,36.564507 48.314414,37.041357 49.154726,37.366206 50.06106,37.429516 49.276156,38.578903 48.388202,39.653433 47.406756,40.634878 43.696391,44.34432 38.690952,46.74128 33.123134,47.09829 32.977467,46.85033 32.839816,46.58376 32.725756,46.28927 32.523198,45.76823 32.389852,45.18345 32.389852,44.53291 32.389852,43.59037 32.661786,42.48984 33.539172,41.172764 34.368192,39.937629 35.048105,39.298933 35.589726,38.942183 35.998939,38.672872 36.338171,38.543346 36.707212,38.443816 36.982919,38.373564 37.277665,38.321273 37.617227,38.245127 37.87065,38.186568 38.150815,38.116254 38.448207,37.999236 38.893694,37.829455 39.371731,37.542867 39.783043,37.115566 40.197552,36.688265 40.550607,36.137745 40.876379,35.441532 41.299083,34.528272 41.775617,33.942602 42.21341,33.602839 42.654801,33.263277 43.043465,33.152081 43.427496,33.146185 Z M 19.337879,69.44582 H 45.100432 C 45.741501,69.44704 46.320515,69.70988 46.749218,70.13629 47.177218,70.56369 47.436993,71.14372 47.437493,71.78727 47.437093,72.10925 47.308255,72.39622 47.092806,72.61276 46.875059,72.82942 46.588091,72.95745 46.267315,72.95745 H 18.166604 C 17.845228,72.95745 17.558861,72.82932 17.341114,72.61276 17.125065,72.39612 16.996427,72.10925 16.996427,71.78727 16.996427,71.14332 17.256102,70.56399 17.684702,70.13629 18.114401,69.70889 18.694329,69.44582 19.337879,69.44582 Z" id="path31381" inkscape:connector-curvature="0" />
</svg>

<svg version="1.1" viewBox="0 0 56.73 75.6" xmlns="http://www.w3.org/2000/svg" xmlns:xlink="http://www.w3.org/1999/xlink">
 <defs>
  <linearGradient id="reslogo-linearGradient5862" x1="-1444" x2="-1444" y1="1797" y2="1804" gradientTransform="matrix(2.126 0 0 2.145 3110 -3824)" gradientUnits="userSpaceOnUse" xlink:href="#reslogo-linearGradientSlvr"/>
  <linearGradient id="reslogo-linearGradientSlvr" x1="-1869" x2="-1869" y1="794.4" y2="828" gradientTransform="matrix(1.301,0,0,1.301,1365,-35.3)" gradientUnits="userSpaceOnUse">
   <stop stop-color="#696969" offset="0"/>
   <stop stop-color="#c7c7c9" offset=".17"/>
   <stop stop-color="#f9f9ff" offset=".36"/>
   <stop stop-color="#ccccce" offset=".73"/>
   <stop stop-color="#696969" offset="1"/>
  </linearGradient>
  <linearGradient id="linearGradient32672" x1="20.9" x2="60.46" y1="22.21" y2="18.41" gradientTransform="matrix(.562 0 0 .562 .8533 .06179)" gradientUnits="userSpaceOnUse" xlink:href="#reslogo-linearGradientSlvr"/>
  <linearGradient id="linearGradient32680" x1="26.34" x2="84.68" y1="126.5" y2="126.5" gradientTransform="matrix(.562 0 0 .562 .8533 .06179)" gradientUnits="userSpaceOnUse" xlink:href="#reslogo-linearGradientSlvr"/>
  <linearGradient id="reslogo-linearGradient4674" x1="-1836" x2="-1855" y1="1402" y2="1414" gradientTransform="matrix(1.705 0 0 2.804 3178 -3922)" gradientUnits="userSpaceOnUse">
   <stop stop-color="#1c072d" offset="0"/>
   <stop stop-color="#5700aa" offset=".29"/>
   <stop stop-color="#4b127b" offset=".64"/>
   <stop stop-color="#290a43" offset="1"/>
  </linearGradient>
  <linearGradient id="reslogo-linearGradient4678" x1="-539" x2="-539" y1="871.9" y2="947.7" gradientTransform="matrix(1.088 0 0 1.092 576.4 -960.3)" gradientUnits="userSpaceOnUse">
   <stop stop-color="#141414" offset="0"/>
   <stop stop-color="#0a0a0a" offset=".15"/>
   <stop stop-color="#6d6d6d" offset=".3"/>
   <stop offset=".4821"/>
   <stop stop-color="#141414" offset=".6396"/>
   <stop stop-color="#262626" style="stop-color:#6d6d6d" offset=".7939"/>
   <stop stop-color="#040404" offset="1"/>
  </linearGradient>
 </defs>
 <path d="m55.22 25.06a23.41 23.41 0 0 1-23.41 23.41 23.41 23.41 0 0 1-23.41-23.41 23.41 23.41 0 0 1 23.41-23.41 23.41 23.41 0 0 1 23.41 23.41z" style="fill:url(#reslogo-linearGradient4674)"/>
 <path d="m33.11 48.29c-1.091-1.493-2.306-4.297 0.04497-7.798 3.554-5.298 5.434-1.674 7.246-5.573 0.9654-2.085 2.306-2.974 3.612-2.974 1.144 0 2.262 0.6849 3.076 1.856 0.9917 1.428 2.343 2.441 3.878 2.441 0.7547 0 1.554-0.2458 2.375-0.8078-3.762 7.447-11.38 12.6-20.24 12.85" style="fill:url(#reslogo-linearGradient5862)"/>
 <path d="m23.12 27.2c-3.85 0-6.962-1.083-3.491-6.218 2.309-3.408-2.882-7.377-6.637-7.377-0.7792 0-1.497 0.1698-2.074 0.5561 3.893-7.535 11.75-12.69 20.82-12.69 0.7394 0 1.469 0.04097 2.191 0.1053-5.378 3.676 1.401 6.978 0.757 9.372-0.6498 2.412-5.957 3.893-5.015 8.916 1.083 5.784-1.951 6.966-4.459 7.248-0.6961 0.05266-1.401 0.08194-2.083 0.08194" style="fill:url(#linearGradient32672);stroke-width:.9993"/>
 <path d="m46.1 74.07h-28.1c-1.288 0-2.341-1.053-2.341-2.341 0-1.932 1.581-3.513 3.513-3.513h25.76c1.932 0 3.513 1.581 3.513 3.513 0 1.288-1.053 2.341-2.341 2.341" style="fill:url(#linearGradient32680);stroke-width:.9993"/>
 <path d="m8.12 0.3c-0.2996 0-0.5999 0.1156-0.8288 0.3469-0.4572 0.4567-0.4572 1.193 0 1.65l1.303 1.303c-5.143 5.62-8.295 13.1-8.294 21.33 0 17.2 13.72 31.17 30.81 31.6v10.58h-11.77c-2.584 6e-3 -4.679 2.101-4.683 4.683 0 1.944 1.572 3.513 3.512 3.513h28.1c1.94 0 3.508-1.569 3.513-3.513 0-2.581-2.097-4.675-4.68-4.683h-11.65v-10.6c7.465-0.3581 14.25-3.316 19.47-7.972l1.512 1.512c0.4572 0.4567 1.198 0.4567 1.655 0 0.4572-0.4567 0.4572-1.2 0-1.656l-2.062-2.062c-0.04986-0.09372-0.1081-0.1846-0.1855-0.2646-0.08886-0.09293-0.1911-0.1626-0.2986-0.2196l-4.025-4.025c1.516-1.6 2.821-3.4 3.866-5.362 0.01021-0.006889 0.02054-0.0128 0.03074-0.01976 0.3546-0.2449 0.5288-0.6473 0.5028-1.046 1.5-3.18 2.343-6.733 2.343-10.48 0-12.43-9.227-22.7-21.2-24.35-0.2728-0.1587-0.5995-0.2007-0.9067-0.1142-0.8155-0.0818-1.643-0.124-2.48-0.124-6.402 0-12.23 2.449-16.61 6.459l-6.128-6.125c-0.2286-0.2312-0.5281-0.3469-0.8277-0.3469zm23.56 2.361c0.03131 0 0.06203 0.002066 0.09331 0.002195-0.3694 0.6331-0.5565 1.318-0.5533 1.962 0 0.8254 0.2571 1.55 0.5774 2.189 0.4853 0.9542 1.134 1.757 1.613 2.441 0.24 0.3396 0.4367 0.6447 0.5544 0.8848 0.1206 0.24 0.1489 0.4032 0.146 0.4501v0.03513c-0.02998 0.1112-0.09643 0.258-0.2217 0.4336-0.216 0.3162-0.6122 0.7136-1.101 1.153-0.7306 0.6674-1.66 1.434-2.444 2.464-0.3904 0.521-0.7443 1.106-0.9978 1.774-0.254 0.6732-0.4045 1.423-0.404 2.243 0 0.4391 0.04289 0.8956 0.1317 1.37 0.144 0.7669 0.2064 1.428 0.2064 1.997 0 0.8489-0.1385 1.469-0.337 1.937-0.1499 0.3454-0.3329 0.6151-0.5467 0.8376-0.3202 0.3279-0.723 0.573-1.2 0.7486-0.4622 0.171-0.9898 0.2796-1.517 0.3392-0.6756 0.05266-1.353 0.08233-1.997 0.08233-1.259 0.005996-2.396-0.1405-3.045-0.4215-0.3285-0.1405-0.518-0.2924-0.618-0.427-0.09693-0.1347-0.1555-0.2577-0.1614-0.5445 0-0.2517 0.06698-0.6322 0.2711-1.136 0.2026-0.5034 0.5377-1.131 1.033-1.856 0.5169-0.7611 0.7757-1.616 0.7728-2.441 0-1.001-0.3557-1.925-0.8815-2.728-0.7949-1.2-1.979-2.177-3.296-2.886-1.321-0.7025-2.779-1.147-4.201-1.153-0.09708 0-0.1938 0.01201-0.2909 0.01647 0.6275-0.924 1.324-1.797 2.08-2.616 0.2824-0.01221 0.5613-0.1216 0.7772-0.337 0.2174-0.2171 0.3274-0.4997 0.3381-0.7849 3.982-3.739 9.327-6.029 15.22-6.029zm2.997 0.2064c4.945 0.6656 9.372 2.948 12.73 6.309 4.028 4.033 6.515 9.584 6.515 15.73 0 3.552-0.835 6.905-2.314 9.882-0.4553 0.2294-0.8569 0.314-1.228 0.314-0.5052 0-0.9952-0.1639-1.498-0.4918-0.4989-0.3279-0.991-0.831-1.418-1.446-0.4888-0.7025-1.085-1.288-1.768-1.704-0.6826-0.4098-1.461-0.6553-2.269-0.6553-0.9221-0.005996-1.857 0.3276-2.654 0.9539-0.8008 0.6264-1.478 1.528-2.021 2.693-0.1955 0.4215-0.3768 0.7085-0.5313 0.8957-0.1364 0.1698-0.2489 0.2641-0.3579 0.3403-0.1867 0.1229-0.3998 0.1925-0.775 0.2744-0.5474 0.1229-1.429 0.24-2.407 0.7904-0.9811 0.5503-1.998 1.493-3.085 3.115-1.105 1.639-1.551 3.243-1.547 4.665 0 0.965 0.2013 1.837 0.4896 2.588-5.692-0.2871-10.81-2.71-14.59-6.486-4.028-4.028-6.515-9.584-6.515-15.73 0-3.445 0.7825-6.702 2.179-9.61 0.1773-0.02072 0.3527-0.07704 0.5115-0.1833 0.3308-0.2224 0.8124-0.3579 1.425-0.3579 0.6072 0 1.323 0.1409 2.037 0.3985 1.072 0.3922 2.136 1.059 2.876 1.815 0.3712 0.3805 0.6607 0.7733 0.8485 1.154 0.1886 0.3805 0.2755 0.7318 0.2755 1.059 0 0.3629-0.09582 0.7141-0.3699 1.124-0.5638 0.8372-0.9802 1.587-1.266 2.294-0.2839 0.7084-0.4401 1.37-0.4413 2.013-0.009993 0.7259 0.2272 1.44 0.6488 1.973 0.3121 0.4098 0.7065 0.7146 1.128 0.9429 0.6347 0.3454 1.335 0.5379 2.074 0.6608 0.7389 0.1171 1.521 0.1581 2.317 0.1581 0.7213 0 1.454-0.03506 2.17-0.08782l0.04171-0.005489c0.5924-0.06436 1.234-0.1753 1.878-0.3919 0.9624-0.3162 1.962-0.8787 2.697-1.856 0.3659-0.4859 0.6585-1.065 0.854-1.72 0.1961-0.6615 0.2975-1.4 0.2975-2.225 0-0.7377-0.07991-1.54-0.2459-2.429-0.06396-0.3396-0.09121-0.6496-0.09221-0.9364 0-0.8137 0.2116-1.446 0.5587-2.048 0.5181-0.9016 1.4-1.698 2.294-2.501 0.4461-0.3981 0.8933-0.802 1.292-1.259 0.3952-0.4567 0.7599-0.9836 0.9418-1.651 0.05796-0.2166 0.08452-0.4325 0.08452-0.6433 0-0.3805-0.08088-0.7259-0.1943-1.036-0.2002-0.5444-0.494-1.008-0.8013-1.459-0.4625-0.6732-0.9704-1.31-1.335-1.92-0.1827-0.2986-0.3273-0.5861-0.4215-0.8496-0.09393-0.2576-0.1383-0.4918-0.1383-0.7025 0-0.2752 0.06207-0.5261 0.2788-0.8716 0.1626-0.2541 0.4273-0.5548 0.8365-0.8859zm-24.42 2.394 3.17 3.174c-3.935 4.36-6.334 10.14-6.338 16.47 0 13.58 11.01 24.59 24.59 24.59 0.2297 0 0.4568-0.01131 0.685-0.01757 0.1179 0.01619 0.2372 0.01141 0.3557-0.00878 5.777-0.2406 11.03-2.473 15.11-6.03l3.435 3.434c-5.162 4.56-11.93 7.325-19.35 7.325-8.087 0-15.4-3.273-20.7-8.571-5.298-5.304-8.572-12.61-8.573-20.71 0-7.575 2.887-14.46 7.611-19.66zm33.17 27.88c0.3367 0 0.6887 0.09919 1.055 0.3216 0.3641 0.2166 0.7341 0.5625 1.059 1.031 0.5644 0.8137 1.243 1.533 2.052 2.066 0.721 0.4768 1.561 0.8017 2.468 0.865-0.7849 1.149-1.673 2.224-2.654 3.205-3.71 3.709-8.716 6.106-14.28 6.463-0.1457-0.248-0.2833-0.5145-0.3974-0.809-0.2026-0.521-0.3359-1.106-0.3359-1.756 0-0.9425 0.2719-2.043 1.149-3.36 0.829-1.235 1.509-1.874 2.051-2.231 0.4092-0.2693 0.7484-0.3988 1.117-0.4984 0.2757-0.07025 0.5705-0.1225 0.91-0.1987 0.2534-0.05856 0.5336-0.1289 0.831-0.2459 0.4455-0.1698 0.9235-0.4564 1.335-0.8837 0.4145-0.4273 0.7676-0.9778 1.093-1.674 0.4227-0.9133 0.8992-1.499 1.337-1.839 0.4414-0.3396 0.8301-0.4508 1.214-0.4567zm-24.09 36.3h25.76c0.6411 0.00122 1.22 0.2641 1.649 0.6905 0.428 0.4274 0.6878 1.007 0.6883 1.651-4e-4 0.322-0.1292 0.609-0.3447 0.8255-0.2177 0.2167-0.5047 0.3447-0.8255 0.3447h-28.1c-0.3214 0-0.6077-0.1281-0.8255-0.3447-0.216-0.2166-0.3447-0.5035-0.3447-0.8255 0-0.644 0.2597-1.223 0.6883-1.651 0.4297-0.4274 1.01-0.6905 1.653-0.6905z" style="fill:url(#reslogo-linearGradient4678);stroke-width:2.129"/>
</svg>
